X: 3393
T: Bernard Murphy's
R: polka
M: 2/4
K: Dmajor
Ge dB|DA A>G|FA Bc|BA F2|Ge dB|DA A>G|FA Bc|1 d2 d2:|2 zd d>e||
fd df|ec A2|BA (3Bcd|BA F2|fd df|ec A>G|FA Bc|zd d2:|

